assets/logo.svg

<svg width="240" height="240" viewBox="0 0 240 240" fill="none" xmlns="http://www.w3.org/2000/svg">
<path d="M193.171 0H46.8293C20.9662 0 0 20.9662 0 46.8293V193.171C0 219.034 20.9662 240 46.8293 240H193.171C219.034 240 240 219.034 240 193.171V46.8293C240 20.9662 219.034 0 193.171 0Z" fill="#1DA1F2"/>
<path d="M130 48C130 42.4772 125.523 38 120 38C114.477 38 110 42.4772 110 48H130ZM112.929 199.071C116.834 202.976 123.166 202.976 127.071 199.071L190.711 135.431C194.616 131.526 194.616 125.195 190.711 121.289C186.805 117.384 180.474 117.384 176.569 121.289L120 177.858L63.4315 121.289C59.5262 117.384 53.1946 117.384 49.2893 121.289C45.3841 125.195 45.3841 131.526 49.2893 135.431L112.929 199.071ZM110 48V117.616H130V48H110ZM110 117.616V192H130V117.616H110Z" fill="white"/>
</svg>

<svg width="240" height="240" viewBox="0 0 240 240" fill="#0101ff" xmlns="http://www.w3.org/2000/svg">
  <path d="M193.171 0H46.829C20.966 0 0 20.966 0 46.83v146.34C0 219.034 20.966 240 46.83 240h146.34c25.864 0 46.83-20.966 46.83-46.829V46.829C240 20.966 219.034 0 193.171 0Z" fill="#0101ff"/>
  <path d="M130 48c0-5.523-4.477-10-10-10s-10 4.477-10 10h20Zm-17.071 151.071c3.905 3.905 10.237 3.905 14.142 0l63.64-63.64c3.905-3.905 3.905-10.236 0-14.142-3.906-3.905-10.237-3.905-14.142 0L120 177.858l-56.569-56.569c-3.905-3.905-10.236-3.905-14.142 0-3.905 3.906-3.905 10.237 0 14.142l63.64 63.64ZM110 48v69.616h20V48h-20Zm0 69.616V192h20v-74.384h-20Z" fill="#ffff"/>
</svg>
